X:1
T:4 Mélodies
T:Eternel amour
T:à Madame Alfred Ott
T:4 Mélodies
T:2. Eternel amour
T:Paroles et Musique de Marie Jaëll 
T:Traduction française de Charles Grandmougin 
T:Creative Commons copyright waiver (CC0 1.0 Universal)
T:Creative Commons copyright waiver (CC0 1.0 Universal)
T:Creative Commons copyright waiver (CC0 1.0 Universal)
T:Creative Commons copyright waiver (CC0 1.0 Universal)
C:Marie Jaëll
Z:Marie Jaëll (original lyrics)
Z:Creative Commons copyright waiver (CC0 1.0 Universal)
L:1/8
Q:1/4=144
M:4/4
K:B
V:1 treble nm="Chant\nVoice"
V:1
"^Très animé" z2 | z8 | z4 z2 F2 | F2 ^^F F G3 B | d2 c c B3 F | D2 F F B3 B | c2 c c f3 c | %7
w: ||Les|va- gues des mers, Les|vents et les bois, L'im-|mense u- ni- vers Ré-|\- pond à ma voix. Au|
 c2 c A A2 A F | F2 G G A2 z F | F2 B d f3 c | A2 G G F3 F | F2 G G A3 F | F2 G G c3 A | %13
w: ciel, à la ter- re, J'ai|dit mon bon- heur, Des|flots de lu- mière I-|non- dent mon cœur. Hi-|ver ou prin- temps, Qu'im-|\- porte à l'a- mour, Le|
 A2 B B e2 d2 | c2 B3/2 A/ c3 F ||[M:3/4] F4 F F | G4 G G | =A4 A A | ^A4 A2 | B4 B B | d4 B B | %21
w: jour que j'at- tends est|le plus beau jour. Mon|cœur rem- pli|d'el- le, Lé-|ger et joy-|\- eux, Par-|court d'un coup|d'ai- le La|
 F4 F F ||[M:4/4] B,4 z4 | z8 | z8 | z8 | z8 | z4 z2 F2 | F2 ^^F F G3 B | d2 c3/2 c/ B2 z F | %30
w: terre et les|cieux!|||||La|pu- re clar- té Qui|brille en tes yeux, Ta|
 D2 F F B3 B | c2 c c f3 c | c2 c A A2 A F | F2 G G A2 z F | F2 B d f2 c c | A2 G G F3 F | %36
w: dou- ce beau- té Me|suit en tous lieux. La|nuit, dans mes rê- ves, Sur|mer, dans les bois, Par-|tout et sans trê- ves C'est|toi que je vois. Je|
 F2 G G A A z F | F2 G G c3 A | A2 B B e2 d d | c2 B3/2 A/ c3 F ||[M:3/4] F4 F F | G4 G G | %42
w: te vois sans ces- se Et|même au ciel pur, Nou-|vel- le dé- es- se, Ré-|\- gner dans l'a- zur. A-|mante a- do-|rée, En toi|
 =A4 A A | ^A4 A2 | B4 B B | d4 B B | f4 A A ||[M:4/4] B8 | !fermata!z8 |] %49
w: seu- le j'ai|foi! Mon|âme en- i-|vré- e Tou-|jours est à|toi!||

